docs/themes/v2/source/images/design/beta-icon.svg

<svg fill="none" height="14" viewBox="0 0 7 14" width="7" xmlns="http://www.w3.org/2000/svg"><path d="m0 0v1.4h.7v9.8c0 .7426.294999 1.4548.8201 1.9799.5251.5251 1.23729.8201 1.9799.8201s1.4548-.295 1.9799-.8201.8201-1.2373.8201-1.9799v-9.8h.7v-1.4zm2.8 9.8c-.42 0-.7-.28-.7-.7s.28-.7.7-.7.7.28.7.7-.28.7-.7.7zm1.4-2.8c-.42 0-.7-.28-.7-.7s.28-.7.7-.7.7.28.7.7-.28.7-.7.7zm.7-3.5h-2.8v-2.1h2.8z" fill="#e37bd3"/></svg>

<svg width="7" height="14" viewBox="0 0 7 14" fill="none" xmlns="http://www.w3.org/2000/svg">
<path d="M0 0V1.4H0.7V11.2C0.7 11.9426 0.994999 12.6548 1.5201 13.1799C2.0452 13.705 2.75739 14 3.5 14C4.24261 14 4.9548 13.705 5.4799 13.1799C6.005 12.6548 6.3 11.9426 6.3 11.2V1.4H7V0H0ZM2.8 9.8C2.38 9.8 2.1 9.52 2.1 9.1C2.1 8.68 2.38 8.4 2.8 8.4C3.22 8.4 3.5 8.68 3.5 9.1C3.5 9.52 3.22 9.8 2.8 9.8ZM4.2 7C3.78 7 3.5 6.72 3.5 6.3C3.5 5.88 3.78 5.6 4.2 5.6C4.62 5.6 4.9 5.88 4.9 6.3C4.9 6.72 4.62 7 4.2 7ZM4.9 3.5H2.1V1.4H4.9V3.5Z" fill="#E37BD3"/>
</svg>
